.local/share/icons/Gruvbox-Plus-Dark/actions/16/paint-gradient-linear.svg

<svg width="16" height="16" version="1.1" xmlns="http://www.w3.org/2000/svg">
  <defs>
    <style id="current-color-scheme" type="text/css">.ColorScheme-Text { color:#ebdbb2; } .ColorScheme-Highlight { color:#458588; }</style>
  </defs>
  <path class="ColorScheme-Text" d="m0 0h16v16h-16z" fill="currentColor" opacity=".3"/>
  <path class="ColorScheme-Text" d="m0 0h16v10l-6 6h-10z" fill="currentColor" opacity=".3"/>
  <path class="ColorScheme-Text" d="m0 0h16v5l-11 11h-5z" fill="currentColor" opacity=".3"/>
  <path class="ColorScheme-Text" d="m0 0h16l-16 16z" fill="currentColor" opacity=".3"/>
  <path class="ColorScheme-Text" d="m0 0h11l-11 11z" fill="currentColor" opacity=".3"/>
  <path class="ColorScheme-Text" d="m0 0h6l-6 6z" fill="currentColor"/>
</svg>

<svg xmlns="http://www.w3.org/2000/svg" width="16" height="16" version="1.1">
 <defs>
  <style id="current-color-scheme" type="text/css">
   .ColorScheme-Text { color:#565656; } .ColorScheme-Highlight { color:#4285f4; }
  </style>
 </defs>
 <path style="opacity:0.3;fill:currentColor" class="ColorScheme-Text" d="M 0,0 H 16 V 16 H 0 Z"/>
 <path style="opacity:0.3;fill:currentColor" class="ColorScheme-Text" d="M 0,0 H 16 V 10 L 10,16 0,16 Z"/>
 <path style="opacity:0.3;fill:currentColor" class="ColorScheme-Text" d="M 0,0 H 16 L 16,5 5,16 H 0 Z"/>
 <path style="opacity:0.3;fill:currentColor" class="ColorScheme-Text" d="M 0,0 H 16 L 0,16 Z"/>
 <path style="opacity:0.3;fill:currentColor" class="ColorScheme-Text" d="M 0,0 H 11 L 0,11 Z"/>
 <path style="fill:currentColor" class="ColorScheme-Text" d="M 0,0 H 6 L 0,6 Z"/>
</svg>
